modules/coreui-icons-free/icons/school.svg

<!-- Generated by IcoMoon.io -->
<svg version="1.1" xmlns="http://www.w3.org/2000/svg" width="24" height="24" viewBox="0 0 24 24">
<title>school</title>
<path d="M17.25 16.436l-5.25 2.953-5.25-2.953v-3.12l-1.5-0.833v4.831l6.75 3.797 6.75-3.797v-4.831l-1.5 0.833v3.12z"></path>
<path d="M12 2.155l-10.5 5.444v1.3l10.5 5.833 9-5v4.142h1.5v-6.275zM19.5 8.85l-7.5 4.167-8.54-4.744 8.54-4.428 8.54 4.428z"></path>
</svg>

<svg xmlns="http://www.w3.org/2000/svg" width="24" height="24" viewBox="0 0 24 24"><path d="M17.25 16.436L12 19.389l-5.25-2.953v-3.12l-1.5-.833v4.831L12 21.111l6.75-3.797v-4.831l-1.5.833v3.12z"/><path d="M12 2.155L1.5 7.599v1.3L12 14.732l9-5v4.142h1.5V7.599zm7.5 6.695L12 13.017 3.46 8.273 12 3.845l8.54 4.428z"/></svg>
